X:0610
T:Mrs MacDouall Grant's Strathspey.
M:2/4
L:1/8
Q:1/4=120
I: :| ||
Z:Jack Campin * www.campin.me.uk * 2009
K:G
c|(B/c/d) (.d.d)|c<e Te2| B/c/d   BG|F<AA>c   |(B/c/d) (.d.d)|c/d/e/f/ ge   |dBcA       |G2G:|
g|Ta2       be  |gdgb   |Ta(g/a/) bg|faab     |Ta2       bf  |gd       gf/e/|dBcA       |G2Gg|
  Ta2       bf  |gdgb   |Ta2      bg|fa Tag/a/| bgeg         |fdge          |dc/B/ cB/A/|G2G|]
<end>
<start>
